images/landing-header.svg

<?xml version="1.0" encoding="UTF-8" standalone="no"?>
<!-- Created with Inkscape (http://www.inkscape.org/) -->

<svg
   width="1920mm"
   height="1080mm"
   viewBox="0 0 1920 1080"
   version="1.1"
   id="svg1"
   inkscape:version="1.3 (0e150ed6c4, 2023-07-21)"
   inkscape:export-filename="test.svg"
   inkscape:export-xdpi="96"
   inkscape:export-ydpi="96"
   xmlns:inkscape="http://www.inkscape.org/namespaces/inkscape"
   xmlns:sodipodi="http://sodipodi.sourceforge.net/DTD/sodipodi-0.dtd"
   xmlns="http://www.w3.org/2000/svg"
   xmlns:svg="http://www.w3.org/2000/svg">
  <sodipodi:namedview
     id="namedview1"
     pagecolor="#1b1b1b"
     bordercolor="#eeeeee"
     borderopacity="1"
     inkscape:showpageshadow="0"
     inkscape:pageopacity="0"
     inkscape:pagecheckerboard="0"
     inkscape:deskcolor="#e3fffd"
     inkscape:document-units="mm"
     showgrid="false"
     inkscape:zoom="0.1404207"
     inkscape:cx="5455.0362"
     inkscape:cy="3756.5686"
     inkscape:window-width="2560"
     inkscape:window-height="1566"
     inkscape:window-x="-11"
     inkscape:window-y="-11"
     inkscape:window-maximized="1"
     inkscape:current-layer="svg1">
    <inkscape:grid
       id="grid1"
       units="px"
       originx="8.0565481e-14"
       originy="-2.3498263e-13"
       spacingx="0.26458333"
       spacingy="0.26458334"
       empcolor="#0099e5"
       empopacity="0.30196078"
       color="#0099e5"
       opacity="0.14901961"
       empspacing="5"
       dotted="false"
       gridanglex="30"
       gridanglez="30"
       visible="false" />
  </sodipodi:namedview>
  <defs
     id="defs1">
    <inkscape:path-effect
       effect="curvestitching"
       id="path-effect50981"
       is_visible="true"
       lpeversion="1"
       count="75"
       startpoint_edge_variation="0;1"
       startpoint_spacing_variation="0;1"
       endpoint_edge_variation="0;1"
       endpoint_spacing_variation="0;1"
       strokepath="M 1221.7594,222.50144 C 3601.7125,1209.7304 2026.0526,1120.7564 539.26695,1084.528"
       prop_scale="1"
       scale_y_rel="false"
       strokepath-nodetypes="cc" />
  </defs>
  <g
     inkscape:label="Layer 1"
     inkscape:groupmode="layer"
     id="layer1">
    <rect
       style="fill:#191919;fill-opacity:1;stroke-width:0.727439"
       id="rect1"
       width="1920"
       height="1080"
       x="-2.1316282e-14"
       y="6.2172489e-14"
       sodipodi:insensitive="true" />
  </g>
  <path
     id="rect50981"
     style="fill:none;stroke:#81ad86;stroke-width:2.8"
     d="M 478.49214,681.92069 C 1020.3665,-172.35754 1060.8667,-6.0291458 1132.8306,117.16945 M 479.57265,663.62977 C 1077.0219,-149.68641 1102.8553,12.950278 1162.8502,134.64568 M 479.96024,642.1467 C 1134.5361,-123.05868 1145.563,35.242025 1193.5318,155.17191 M 480.00727,617.00866 C 1192.4724,-91.900716 1188.6241,61.32631 1224.5389,179.19029 M 480.24654,587.80281 C 1250.1705,-55.700788 1231.4857,91.631542 1255.3623,207.09533 M 481.41421,554.25324 C 1306.7179,-14.116947 1273.3839,126.44399 1285.2986,239.1506 M 484.43674,516.33557 C 1360.9662,32.881062 1313.3575,165.78897 1313.4627,275.37942 M 490.35809,474.39741 C 1411.6214,84.862355 1350.3231,209.30577 1338.8571,315.44966 M 500.19518,429.24151 C 1457.4232,140.83196 1383.2256,256.16144 1360.5102,358.59432 M 514.74135,382.1164 C 1497.3883,199.24235 1411.2417,305.06044 1377.6639,403.62048 M 534.37843,334.58031 C 1531.0432,258.16214 1433.9753,354.3859 1389.9534,449.03932 M 558.97613,288.25969 c 999.57347,27.3157 892.58547,114.19045 838.52717,205.03714 M 587.92706,244.58281 c 992.73324,125.12897 876.70364,203.1883 812.96674,290.44553 M 620.30025,204.58412 C 1598.5292,419.28915 1474.1488,489.27544 1401.0146,573.24549 M 655.04298,168.83295 C 1613.4611,463.60183 1481.2081,526.37237 1398.8713,607.40431 M 691.15645,137.47692 C 1626.694,502.46684 1486.8452,558.90871 1395.4183,637.36374 M 727.8045,110.35044 c 911.4598,425.739 764.1229,476.70585 663.65,552.93158 M 764.35384,87.096274 C 1651.957,564.91239 1497.1122,611.18579 1387.5851,685.50044 M 800.36608,67.26772 C 1665.3153,589.48939 1502.8542,631.76074 1384.2288,704.44583 M 826.8549,59.134969 C 1661.4804,628.56705 1496.9232,661.75456 1374.4458,727.74235 M 846.68345,59.834859 C 1636.9034,685.69419 1476.3483,704.13819 1355.5004,758.12564 M 869.93761,59.99764 C 1608.0805,743.48706 1452.2188,747.07914 1333.282,789.0221 M 897.0641,60.061714 C 1574.4579,801.40229 1424.0712,790.12252 1307.3637,820.01288 M 928.42013,60.660377 C 1535.5929,858.6549 1391.5349,832.61119 1277.4043,850.49289 M 964.1713,62.629777 C 1491.2802,914.20851 1354.4379,873.67752 1243.2455,879.6632 M 1004.17,66.968712 C 1441.7028,966.82515 1312.9336,912.28512 1205.0283,906.56952 M 1047.8469,74.729903 C 1387.5664,1015.2 1267.6126,947.34165 1163.2968,930.20601 M 1094.1675,86.844334 c 235.9857,971.334766 125.3809,891.036726 24.8718,862.838826 m 22.6643,-845.76378 c 129.5298,991.09022 28.5193,899.35372 -68.0831,860.50126 m 115.2082,-838.3353 c 23.9943,999.44476 -67.5048,897.29736 -160.2344,848.20861 M 1233.9846,152.96038 C 1156.8534,1150.2138 1074.4683,1038.6059 985.44966,979.66792 M 1275.9227,183.75115 C 1104.8721,1170.0441 1030.9515,1049.7659 945.37942,981.30056 M 1313.8404,217.44075 C 1057.8741,1186.2813 991.60648,1057.918 909.1506,980.16349 M 1347.39,252.98521 C 1016.2902,1200.2195 956.79403,1064.1455 877.09533,977.25418 M 1376.5958,289.45806 C 980.09032,1213.0069 926.4888,1069.4096 849.19029,973.45782 M 1401.7339,326.12317 C 948.93236,1225.5561 900.40452,1074.4742 825.17191,969.47778 M 1423.2169,362.44769 C 922.30463,1238.5274 878.11277,1079.8922 804.64568,965.82314 M 1441.5079,398.07931 C 899.6335,1252.3575 859.13335,1086.0291 787.16945,962.83055 M 1440.4274,416.37023 C 842.97812,1229.6864 817.14466,1067.0497 757.14983,945.35432 M 1440.0398,437.8533 C 785.4639,1203.0587 774.43699,1044.758 726.46816,924.82809 M 1439.9927,462.99134 C 727.52755,1171.9007 731.37592,1018.6737 695.4611,900.80971 M 1439.7535,492.19719 C 669.82949,1135.7008 688.51433,988.36846 664.63771,872.90467 M 1438.5858,525.74676 C 613.28215,1094.1169 646.61609,953.55601 634.70137,840.8494 M 1435.5633,563.66443 C 559.03385,1047.1189 606.64253,914.21103 606.53728,804.62058 M 1429.6419,605.60259 C 508.37858,995.13765 569.67691,870.69423 581.14289,764.55034 M 1419.8048,650.75849 C 462.57676,939.16804 536.77442,823.83856 559.48984,721.40568 M 1405.2587,697.8836 C 422.61174,880.75765 508.75828,774.93956 542.33612,676.37952 m 843.28548,69.04017 C 388.95677,821.83786 486.02468,725.6141 530.04657,630.96068 M 1361.0239,791.74031 C 361.45036,764.42461 468.43842,677.54986 522.49669,586.70317 M 1332.0729,835.41719 C 339.33968,710.28822 455.36927,632.22889 519.10615,544.97166 M 1299.6997,875.41588 C 321.4708,660.71085 445.8512,590.72456 518.98545,506.75451 M 1264.957,911.16705 C 306.53889,616.39817 438.79186,553.62763 521.12874,472.59569 M 1228.8436,942.52308 C 293.30599,577.53316 433.15485,521.09129 524.58171,442.63626 m 667.61379,527.0133 C 280.73569,543.91056 428.07255,492.94371 528.54546,416.71798 M 1155.6462,992.90373 C 268.04305,515.08761 422.88783,468.81421 532.4149,394.49956 m 587.219,618.23274 C 254.68468,490.51061 417.14579,448.23926 535.77116,375.55417 M 1093.1451,1020.865 C 258.51958,451.43295 423.07677,418.24544 545.55417,352.25765 M 1073.3165,1020.1651 C 283.09657,394.30581 443.65171,375.86181 564.49956,321.87436 M 1050.0624,1020.0024 C 311.91952,336.51294 467.78121,332.92086 586.71798,290.9779 m 436.21792,728.9604 C 345.54212,278.59771 495.9288,289.87748 612.63626,259.98712 M 991.57987,1019.3396 C 384.40713,221.3451 528.46514,247.38881 642.59569,229.50711 M 955.8287,1017.3702 C 428.71981,165.79149 565.56207,206.32248 676.75451,200.3368 m 239.0755,812.6945 C 478.29718,113.17485 607.0664,167.71488 714.97166,173.43048 M 872.15314,1005.2701 C 532.43357,64.800012 652.38737,132.65835 756.70317,149.79399 m 69.12935,843.36168 C 589.84682,21.820906 700.4516,102.11894 800.96068,130.31684 M 778.29642,976.08062 C 648.76661,-15.009644 749.77706,76.726858 846.37952,115.57936 M 731.17131,953.91466 C 707.17701,-45.530133 798.67607,56.617329 891.40568,105.70605 M 686.01541,927.03962 C 763.14661,-70.213837 845.53173,41.394139 934.55034,100.33208 M 644.07726,896.24885 C 815.1279,-90.044083 889.04854,30.234084 974.62058,98.699438 M 606.15958,862.55925 C 862.12591,-106.2813 928.39352,22.081975 1010.8494,99.83651 M 572.61002,827.01479 C 903.70975,-120.21948 963.20597,15.85454 1042.9047,102.74582 M 543.40416,790.54194 C 939.90968,-133.00693 993.5112,10.590449 1070.8097,106.54218 M 518.26613,753.87683 C 971.06764,-145.5561 1019.5955,5.5258439 1094.8281,110.52222 M 496.78305,717.55231 C 997.69537,-158.5274 1041.8872,0.1078452 1115.3543,114.17686 M 478.49214,681.92069 C 1020.3665,-172.35754 1060.8667,-6.0291458 1132.8306,117.16945"
     inkscape:path-effect="#path-effect50981"
     inkscape:original-d="m 835,415 h 250 V 665 H 835 Z M 710,290 h 500 V 790 H 710 Z" />
</svg>

<svg xmlns="http://www.w3.org/2000/svg" width="1920mm" height="1080mm" viewBox="0 0 1920 1080"><path d="M0 0h1920v1080H0z" style="fill:#191919;fill-opacity:1;stroke-width:.727439"/><path d="M478.492 681.92c541.875-854.278 582.375-687.95 654.339-564.75M479.573 663.63c597.449-813.316 623.282-650.68 683.277-528.984m-682.89 507.5c654.576-765.205 665.603-606.904 713.572-486.974M480.007 617.009c712.465-708.91 708.617-555.683 744.532-437.819M480.247 587.803c769.923-643.504 751.239-496.171 775.115-380.708M481.414 554.253c825.304-568.37 791.97-427.809 803.885-315.102M484.437 516.336c876.53-483.455 828.92-350.547 829.026-240.957M490.358 474.397c921.263-389.535 859.965-265.091 848.5-158.947M500.194 429.242c957.228-288.41 883.03-173.08 860.315-70.648m-845.769 23.522c982.647-182.874 896.5-77.056 862.923 21.504m-843.286-69.04c996.665-76.418 899.597 19.806 855.575 114.46M558.976 288.26c999.574 27.315 892.586 114.19 838.527 205.037M587.927 244.583c992.733 125.129 876.704 203.188 812.967 290.445M620.3 204.584c978.23 214.705 853.849 284.691 780.715 368.661M655.043 168.833c958.418 294.769 826.165 357.54 743.828 438.571M691.156 137.477c935.538 364.99 795.69 421.432 704.262 499.887M727.805 110.35c911.46 425.74 764.122 476.706 663.65 552.932M764.353 87.096c887.603 477.816 732.758 524.09 623.231 598.404M800.366 67.268c864.95 522.221 702.488 564.493 583.863 637.178M826.855 59.135c834.625 569.432 670.068 602.62 547.59 668.607M846.684 59.835c790.22 625.86 629.665 644.303 508.817 698.29M869.938 59.999c738.143 683.49 582.28 687.081 463.344 729.024M897.064 60.062c677.394 741.34 527.007 730.06 410.3 759.95M928.42 60.66c607.173 797.995 463.115 771.951 348.984 789.833M964.171 62.63c527.11 851.579 390.267 811.048 279.074 817.033M1004.17 66.97c437.533 899.856 308.764 845.316 200.858 839.6M1047.847 74.73c339.72 940.471 219.766 872.613 115.45 855.477m-69.13-843.362c235.986 971.335 125.381 891.037 24.872 862.84m22.665-845.765c129.53 991.09 28.519 899.354-68.084 860.502m115.209-838.336c23.994 999.445-67.505 897.298-160.235 848.209m205.39-821.334c-77.13 997.254-159.516 885.646-248.534 826.708m290.473-795.917c-171.05 986.293-244.972 866.015-330.544 797.55m368.461-763.86c-255.966 968.84-322.234 840.477-404.69 762.722m438.24-727.178c-331.1 947.234-390.596 811.16-470.295 724.27m499.5-687.797c-396.505 923.549-450.106 779.952-527.405 684m552.544-647.335c-452.802 899.433-501.33 748.351-576.562 643.355m598.045-607.03c-500.912 876.08-545.104 717.444-618.571 603.375m636.862-567.744c-541.875 854.279-582.375 687.95-654.339 564.752m653.258-546.46C842.978 1229.685 817.145 1067.05 757.15 945.353m682.89-507.5c-654.576 765.205-665.603 606.904-713.572 486.974m713.525-461.837c-712.465 708.91-708.617 555.683-744.532 437.819m744.293-408.613c-769.925 643.504-751.24 496.171-775.116 380.708m773.948-347.158c-825.304 568.37-791.97 427.809-803.885 315.102m800.862-277.185c-876.53 483.455-828.92 350.547-829.026 240.957m823.105-199.018c-921.263 389.535-859.965 265.091-848.5 158.947m838.663-113.792c-957.228 288.41-883.03 173.08-860.315 70.648m845.769-23.522c-982.647 182.874-896.5 77.056-862.923-21.504m843.286 69.04c-996.665 76.418-899.597-19.806-855.575-114.46m830.977 160.78C361.45 764.425 468.438 677.55 522.497 586.703m809.576 248.714C339.34 710.288 455.369 632.23 519.106 544.972M1299.7 875.416C321.47 660.71 445.85 590.725 518.985 506.755m745.972 404.412c-958.418-294.769-826.165-357.54-743.828-438.571m707.715 469.927c-935.538-364.99-795.69-421.432-704.262-499.887m667.614 527.014c-911.46-425.74-764.123-476.706-663.65-552.932m627.1 576.186C268.043 515.088 422.888 468.814 532.415 394.5m587.219 618.232C254.684 490.511 417.146 448.24 535.77 375.554m557.374 645.311c-834.625-569.432-670.068-602.62-547.59-668.607m527.761 667.907c-790.22-625.86-629.664-644.303-508.816-698.29m485.562 698.127c-738.142-683.49-582.28-687.081-463.344-729.024m436.218 728.96c-677.394-741.34-527.007-730.06-410.3-759.95M991.58 1019.34C384.407 221.345 528.465 247.389 642.596 229.507m313.233 787.863c-527.11-851.579-390.267-811.048-279.074-817.033M915.83 1013.03c-437.533-899.856-308.764-845.316-200.858-839.6m157.181 831.84C532.433 64.8 652.387 132.657 756.703 149.793m69.13 843.362C589.847 21.82 700.452 102.119 800.96 130.316m-22.665 845.765C648.766-15.01 749.777 76.727 846.38 115.579M731.17 953.915C707.177-45.53 798.676 56.617 891.406 105.706M686.016 927.04C763.145-70.214 845.531 41.394 934.55 100.332M644.077 896.25C815.127-90.044 889.05 30.234 974.621 98.699M606.16 862.56C862.126-106.28 928.394 22.082 1010.85 99.837M572.61 827.015c331.1-947.234 390.596-811.16 470.295-724.27m-499.5 687.797c396.505-923.549 450.106-779.952 527.405-684M518.266 753.877c452.802-899.433 501.33-748.351 576.562-643.355m-598.045 607.03C997.695-158.528 1041.887.108 1115.354 114.177M478.492 681.92c541.874-854.279 582.375-687.95 654.339-564.752" style="fill:none;stroke:#81ad86;stroke-width:2.8"/></svg>
